X:816
T:Allan C. Beaton of Tobermory
C:Joe Buchanan's Scottish Tome - Page 364.0
I:364 0
Z:Carl Allison
R:Strathspey
L:1/16
M:2/4
K:A
a2| A>AA>c B>A(B<c) | e>fa>e f2(e>f) | a>e(f<a) c<eA>c | d>cc<e B2(e<a) |
A>AA>c B>A(B<c) | e>fa>e f2(e>f) | a>e(f<a) e>AB<c | A4 A2 :|
(f>g) | a>ga>e (c<e)(c<A) | f>ed>f e2(f>g) | a>ga>e (c<e)A>c | d>c(c<e) B2(f>g) |
[1 a>ga>e (c<e)(c<A) | f>ed>f e2(f>g) | a>e(f<a) e>A(B<c) | A4 A2 :|
[2 A>AA>c B>A(B<c) | e>fa>e f2(e>f) | a>e(f<a) e>A(B<c) | A4 A2 |]
A>B | c4 (c<e)B>c | A>cf>c e2(A>B) | c4 (c<e)(d<f) | e>ca>c B2(a>f) |
[1 (c<e)e>f (c<e)A>c | d>fa>f f>ef>g | a>e(f<a) e>A(B<c) | A4 A2 :|
[2 e2(e>f) (c<e)A>c | d>fa>f f>ef>g | a>e(f<a) e>A(B<c) | A4 A2 |]
a2 | ((3edc) ((3dcB) A>ce>a | f>d(f<a) e>A(c<a) | ((3edc) ((3dcB) A>ce>c | e>c(c<e) B2(a>f) |
((3edc) ((3dcB) A>ce>=g | f>e(f<a) d2(f>g) | a>ef<a e>AB<c | A4 A2a2|
((3edc) ((3dcB) A>ce>a | f>d(f<a) e>A(c<a) | ((3edc) ((3dcB) A>ce>c | e>c(c<e) B2(a>f) |
((3ABc) ((3Bcd) c>A(c<e) | f>ef<a e2f>g | a>e(f<a) e>AB<c | A4 A2 |]
